weather-fog.svg

<svg  viewBox="0 0 24 24" fill="currentColor"><path  d="M3,15H13A1,1 0 0,1 14,16A1,1 0 0,1 13,17H3A1,1 0 0,1 2,16A1,1 0 0,1 3,15M16,15H21A1,1 0 0,1 22,16A1,1 0 0,1 21,17H16A1,1 0 0,1 15,16A1,1 0 0,1 16,15M1,12A5,5 0 0,1 6,7C7,4.65 9.3,3 12,3C15.43,3 18.24,5.66 18.5,9.03L19,9C21.19,9 22.97,10.76 23,13H21A2,2 0 0,0 19,11H17V10A5,5 0 0,0 12,5C9.5,5 7.45,6.82 7.06,9.19C6.73,9.07 6.37,9 6,9A3,3 0 0,0 3,12C3,12.35 3.06,12.69 3.17,13H1.1L1,12M3,19H5A1,1 0 0,1 6,20A1,1 0 0,1 5,21H3A1,1 0 0,1 2,20A1,1 0 0,1 3,19M8,19H21A1,1 0 0,1 22,20A1,1 0 0,1 21,21H8A1,1 0 0,1 7,20A1,1 0 0,1 8,19Z"/></svg>

<svg fill="currentColor" viewBox="0 0 24 24"><path d="M3 15h10a1 1 0 0 1 1 1 1 1 0 0 1-1 1H3a1 1 0 0 1-1-1 1 1 0 0 1 1-1m13 0h5a1 1 0 0 1 1 1 1 1 0 0 1-1 1h-5a1 1 0 0 1-1-1 1 1 0 0 1 1-1M1 12a5 5 0 0 1 5-5c1-2.35 3.3-4 6-4 3.43 0 6.24 2.66 6.5 6.03L19 9c2.19 0 3.97 1.76 4 4h-2a2 2 0 0 0-2-2h-2v-1a5 5 0 0 0-5-5C9.5 5 7.45 6.82 7.06 9.19 6.73 9.07 6.37 9 6 9a3 3 0 0 0-3 3 3 3 0 0 0 .17 1H1.1zm2 7h2a1 1 0 0 1 1 1 1 1 0 0 1-1 1H3a1 1 0 0 1-1-1 1 1 0 0 1 1-1m5 0h13a1 1 0 0 1 1 1 1 1 0 0 1-1 1H8a1 1 0 0 1-1-1 1 1 0 0 1 1-1"/></svg>
